X:1
T:Title
%%score { ( 1 3 ) | ( 2 4 ) }
L:1/8
Q:1/4=100
M:4/4
K:Bb
V:1 treble nm="Grand Piano"
V:3 treble 
V:2 bass 
V:4 bass 
V:1
 B>F =E>F G2 F2 | D>[K:bass]B, A,>B, C2 B,2 | G>A B>c d2 B2 |[M:7/8] [Af]- [Af]3 [Af]3 | %4
w: Haldor~Lillenas * * * * *||||
[M:1/4] [DF]2 |[M:4/4] [DB]6[K:bass][K:treble] z2 | [Fd]6 z2 | [Ff]2 [Fd]2 [FB]2 [Gc]2 | B4 A2 z2 | %9
w: |||||
 c6 z2 | e6 z2 | f2 c2 =B2 c2 | [Fd]6[K:bass] z2 | [DB]6[K:bass][K:treble] z2 | [Fd]6 z2 | %15
w: ||||||
 [Ff]2 d2 c2 B2 | [FA]4 z4 | [_DGB]>[DGA] [DGB]>[DGA] [DGB]2 G2 | B>A B>A B2 [Bf]2 | %19
w: ||||
 [Bg]>[Bg] [Bg]>[Bg] [Bf]>[Bf] [DFB]>[DFB] | [EFc]4 [DFB]4 | z BBB B[K:bass]_D,=D,E, | %22
w: |||
 z[K:treble] BBB B[K:bass]=E,F,G, | B2 B2 B2 B2 | cccc c[K:bass]A,G,F, | %25
w: |||
 z[K:treble] AAA A[K:bass]D,E,F, | z[K:treble] ccc cG,A,B, | B2 B2 B2 B2 | AAAA [EA]2 z2 | %29
w: ||||
 D6[K:treble] z2 | F6[K:bass][K:treble] z2 | [DB]2 [DA]2 [Dc]2 [FB]2 | [FA]4 z4 | %33
w: ||||
 [_DGB]>[DGA] [DGB]>[DGA] [DGB]2 G2 | B>A B>A B2 [Bf]2 | %35
w: ||
 [Bg]>[Bg] [Bg]>[Bg] [Bf]>[Bf] [DFB]>[DFB] |[M:3/4] [EFc]4 [DFB]2 |] %37
w: ||
V:2
 z8 | D,>B,, A,,>B,, C,2 B,,2 | [G,,G,]>[A,,A,] [B,,B,]>[C,C] [D,D]2 [B,,B,]2 | %3
[M:7/8] [F,C]- [F,C]3 [F,E]3 |[M:1/4] z2 |[M:4/4] [B,,F,]>B,, B,,>B,, B,,>[B,,F,C] DE | %6
 [B,,B,]>B,, B,,>B,, B,,>[B,,B,] [B,,B,][C,A,] | [D,B,]2 [F,B,]2 [B,D]2 [E,E]2 | %8
 [F,DF]4 [F,CF]2 z2 | E6[K:treble] z2 | F6 z2 | [F,A,F]2 [F,A,E]2 [F,_A,D]2 [F,=A,E]2 | B,2 z2 z4 | %13
 [B,,F,]>B,, B,,>B,, B,,>[B,,F,C] DE | [B,,B,]>B,, B,,>B,, B,,>[B,,B,] [B,,B,][C,A,] | %15
 [D,B,]2 [F,B,F]2 [F,A,E]2 [G,B,D]2 | [E,B,]>E, E,>E, E,>C, D,E, | =E,>E, E,>E, E,2 [E,_D]2 | %18
 [F,DF]>[F,CF] [F,DF]>[F,CF] [F,DF]2 [F,D]2 | [=E,_D]>[E,D] [E,D]>[E,D] [F,=D]>[F,D] F,>F, | %20
 F,4 B,,4 | z[K:treble] [B,F][B,F][B,F] .[B,F]2 z2 | z [DF][DF][DF] .[DF]2 z2 | %23
 [CDF]2 [B,DF]2 [F,DF]2 [G,DF]2 | [CF][EF][EF][EF] .[EF]2 z2 | z [CF][CF][CF] .[CF]2 z2 | %26
 z [EF][EF][EF] .[EF]2 z2 | [G,D=E]2 [G,CE]2 [G,E]2 [G,CE]2 | .[F,E]2 z2 z4 | B,6 z2 | D6 z2 | %31
 [B,,F,]2 [B,,F,]2 [B,,F,]2 [D,B,]2 | [E,B,]>E, E,>E, E,>C, D,>E, | =E,>E, E,>E, E,2 [E,_D]2 | %34
 [F,DF]>[F,CF] [F,DF]>[F,CF] [F,DF]2 [F,D]2 | [=E,_D]>[E,D] [E,D]>[E,D] [F,=D]>[F,D] F,>F, | %36
[M:3/4] F,4 B,,2 |] %37
V:3
 x8 | x3/2[K:bass] x13/2 | x8 |[M:7/8] x7 |[M:1/4] x2 | %5
[M:4/4] z z/[K:bass] F,/ F,>F, F,>[K:treble]A Bc | z z/ B,/ B,>B, B,>[Ec] [Fd][Fe] | x8 | x8 | %9
 z z/ A,/ A,>A, A,>=B cd | z z/ A,/ A,>A, A,>c =Bc | x8 | z z/[K:bass] F,/ G,>D, .F,>F,, G,,>A,, | %13
 z z/[K:bass] F,/ F,>F, F,>[K:treble]A Bc | z z/ B,/ B,>B, B,>[Ec] [Fd][Fe] | x8 | %16
 z z/ B,/ B,>B, [B,EG]4 | x8 | x8 | x8 | x8 | D,6[K:bass] z2 | F,6[K:treble][K:bass] z2 | x8 | %24
 x5[K:bass] x3 | E,6[K:treble][K:bass] z2 | A,6[K:treble] z2 | x8 | x8 | %29
 z F,F,F, F,[K:treble]_D=DE | z B,- B,/[K:bass]B,/B,- B,/B,/=E[K:treble] FG | x8 | %32
 z z/ B,/ B,>B, [B,EG]4 | x8 | x8 | x8 |[M:3/4] x6 |] %37
V:4
 x8 | x8 | x8 |[M:7/8] x7 |[M:1/4] x2 |[M:4/4] x8 | x8 | x8 | x8 | %9
 [F,A,]>F, F,>F, F,>[F,A,D][K:treble] EF | [F,A,]>F, F,>F, F,>[F,A,E] [F,_A,D][F,=A,E] | x8 | %12
 B,,4 B,,2 z2 | x8 | x8 | x8 | x8 | x8 | x8 | x8 | x8 | x[K:treble] x7 | x8 | x8 | A,6 z2 | x8 | %26
 x8 | x8 | C-[=E,C-E][F,C-E][_E,C-E] [C,C-][A,,C] F,,2 | z B,,B,,B,, B,,B,B,C | %30
 z B,,- B,,/B,,/B,,- B,,/B,,/_D =DD | x8 | x8 | x8 | x8 | x8 |[M:3/4] x6 |] %37

